!!!COM: Corelli, Arcangelo
!!!OTL: 
!!!ONM: Opus 4, No. 7
!!!OMV: 4
!!!CDT: 1653/2/17/-1713/1/8/
!!!OCY: Italia
**kern	**kern	**kern	**kern
*clefC	*clefC	*clefG	*clefG
*k[b-]	*k[b-]	*k[b-]	*k[b-]
*F:	*F:	*F:	*F:
*M4/4	*M4/4	*M4/4	*M4/4
=1	=1	=1	=1
2F	2F	2a	12ff
.	.	.	12aa
.	.	.	12ff
.	.	.	12cc
.	.	.	12ff
.	.	.	12cc
4BB-	4BB-	4b-	12dd
.	.	.	12ff
.	.	.	12dd
4F	4F	4cc	12a
.	.	.	12cc
.	.	.	12a
=2	=2	=2	=2
4D	4D	4f	12b-
.	.	.	12dd
.	.	.	12b-
4E	4E	4g	12g
.	.	.	12cc
.	.	.	12g
2F	2F	2c	12a
.	.	.	12cc
.	.	.	12a
.	.	.	12f
.	.	.	12a
.	.	.	12f
=3	=3	=3	=3
2E	2E	2cc	12g
.	.	.	12cc
.	.	.	12g
.	.	.	12e
.	.	.	12g
.	.	.	12e
4D	4D	4cc	12f
.	.	.	12a
.	.	.	12f
4G	4G	4b	12d
.	.	.	12g
.	.	.	12d
=4	=4	=4	=4
2C	2C	4cc	12e
.	.	.	12d
.	.	.	12c
.	.	4e	12cc
.	.	.	12dd
.	.	.	12a
4D	4D	4f	12b-
.	.	.	12dd
.	.	.	12b-
4E	4E	4g	12g
.	.	.	12cc
.	.	.	12g
=5	=5	=5	=5
2F	2F	4c	12a
.	.	.	12g
.	.	.	12f
.	.	4a	12ff
.	.	.	12gg
.	.	.	12dd
4G	4G	4b-	12ee-
.	.	.	12gg
.	.	.	12ee-
4A	4A	4cc	12cc
.	.	.	12ff
.	.	.	12cc
=6	=6	=6	=6
2B-	2B-	4f	12dd
.	.	.	12cc
.	.	.	12b-
.	.	2b-	12dd
.	.	.	12gg
.	.	.	12ff
4c	4c	.	12ee
.	.	.	12dd
.	.	.	12cc
4d	4d	4a	12ff
.	.	.	12gg
.	.	.	12aa
=7	=7	=7	=7
4B-	4B-	4.g	12dd
.	.	.	12ee
.	.	.	12ff
4c	4c	.	12cc
.	.	.	12ff
.	.	8cc	.
.	.	.	12ee
2F	2F	2a	12ff
.	.	.	12cc
.	.	.	12a
.	.	.	12f
.	.	.	12a
.	.	.	12f
=8	=8	=8	=8
2E	2E	2cc	12g
.	.	.	12e
.	.	.	12g
.	.	.	12cc
.	.	.	12g
.	.	.	12cc
2F	2F	2cc	12a
.	.	.	12f
.	.	.	12a
.	.	.	12cc
.	.	.	12ff
.	.	.	12cc
=9	=9	=9	=9
2BB	2BB	2g	12dd
.	.	.	12b
.	.	.	12dd
.	.	.	12gg
.	.	.	12dd
.	.	.	12gg
4C	4C	4g	12ee
.	.	.	12cc
.	.	.	12ee
4E	4E	4gg	12ccc
.	.	.	12ee
.	.	.	12ccc
=10	=10	=10	=10
2F	2F	4cc	12aa
.	.	.	12ff
.	.	.	12aa
.	.	2ff	12ddd
.	.	.	12ff
.	.	.	12ddd
4G	4G	.	12bb
.	.	.	12gg
.	.	.	12bb
4A	4A	4ee	12ccc
.	.	.	12ee
.	.	.	12ccc
=11	=11	=11	=11
4F	4F	4.dd	12ff
.	.	.	12bb
.	.	.	12ccc
4G	4G	.	12dd
.	.	.	12ccc
.	.	8gg	.
.	.	.	12bb
2C	2C	2ee	2cc
=12	=12	=12	=12
2A	2A	2cc	12ff
.	.	.	12aa
.	.	.	12ff
.	.	.	12cc
.	.	.	12ff
.	.	.	12cc
4B-	4B-	4ff	12dd
.	.	.	12ff
.	.	.	12dd
4A	4A	4f	12cc
.	.	.	12ff
.	.	.	12cc
=13	=13	=13	=13
4B-	4B-	2r	12dd
.	.	.	12ff
.	.	.	12dd
4A	4A	.	12cc
.	.	.	12ff
.	.	.	12cc
2B-	2B-	4b-	12dd
.	.	.	12ff
.	.	.	12gg
.	.	4B-	12dd
.	.	.	12gg
.	.	.	12dd
=14	=14	=14	=14
4c	4c	2r	12ee
.	.	.	12gg
.	.	.	12ee
4B	4B	.	12dd
.	.	.	12gg
.	.	.	12dd
4c	4c	4gg	12ee
.	.	.	12gg
.	.	.	12ee
4B	4B	4g	12dd
.	.	.	12gg
.	.	.	12dd
=15	=15	=15	=15
4c	4c	2r	12ee
.	.	.	12gg
.	.	.	12ee
4B	4B	.	12dd
.	.	.	12gg
.	.	.	12dd
2c	2c	4cc	12ee
.	.	.	12gg
.	.	.	12aa
.	.	4c	12ee
.	.	.	12aa
.	.	.	12ee
=16	=16	=16	=16
4d	4d	2r	12ff
.	.	.	12aa
.	.	.	12ff
4c#	4c#	.	12ee
.	.	.	12aa
.	.	.	12ee
4d	4d	4aa	12ff
.	.	.	12aa
.	.	.	12ff
4c#	4c#	4a	12ee
.	.	.	12aa
.	.	.	12ee
=17	=17	=17	=17
4d	4d	2r	12ff
.	.	.	12aa
.	.	.	12ff
4c#	4c#	.	12ee
.	.	.	12aa
.	.	.	12ee
4d	4d	4dd	12ff
.	.	.	12aa
.	.	.	12ff
4c	4c	4a	12ee
.	.	.	12aa
.	.	.	12ee
=18	=18	=18	=18
4B-	4B-	4dd	12dd
.	.	.	12ff
.	.	.	12bb-
4G	4G	4bb-	12dd
.	.	.	12gg
.	.	.	12bb-
4A	4A	4ee	12cc#
.	.	.	12ee
.	.	.	12aa
4F	4F	4ff	12dd
.	.	.	12aa
.	.	.	12ddd
=19	=19	=19	=19
4G	4G	4.ee	12bb
.	.	.	12ccc#
.	.	.	12ddd
4A	4A	.	12ee
.	.	.	12ddd
.	.	8aa	.
.	.	.	12ccc#
2D	2D	2ff	2dd
=20	=20	=20	=20
2AA	2AA	2cc	12ff
.	.	.	12aa
.	.	.	12ff
.	.	.	12cc
.	.	.	12ff
.	.	.	12cc
4BB-	4BB-	4b-	12dd
.	.	.	12ff
.	.	.	12dd
4F	4F	4cc	12a
.	.	.	12cc
.	.	.	12a
=21	=21	=21	=21
4D	4D	4f	12b-
.	.	.	12dd
.	.	.	12b-
4E	4E	4g	12g
.	.	.	12cc
.	.	.	12g
2F	2F	2c	12a
.	.	.	12cc
.	.	.	12a
.	.	.	12f
.	.	.	12a
.	.	.	12f
=22	=22	=22	=22
2E	2E	2cc	12g
.	.	.	12b-
.	.	.	12g
.	.	.	12e
.	.	.	12g
.	.	.	12e
4D	4D	4cc	12f
.	.	.	12a
.	.	.	12f
4G	4G	4b	12d
.	.	.	12g
.	.	.	12d
=23	=23	=23	=23
4C	4C	2cc	12e
.	.	.	12d
.	.	.	12c
4AA	4AA	.	12f
.	.	.	12A
.	.	.	12f
4BB-	4BB-	4g	12d
.	.	.	12B-
.	.	.	12g
4C	4C	4a	12e
.	.	.	12c
.	.	.	12a
=24	=24	=24	=24
4D	4D	4b-	12f
.	.	.	12d
.	.	.	12b-
4E	4E	4cc	12g
.	.	.	12e
.	.	.	12cc
4F	4F	4cc	12a
.	.	.	12f
.	.	.	12cc
4BB-	4BB-	4r	12dd
.	.	.	12b-
.	.	.	12gg
=25	=25	=25	=25
4C	4C	4cc	12ee
.	.	.	12cc
.	.	.	12ff
4CC	4CC	4b-	12ff
.	.	.	12gg
.	.	.	12ee
4F	4F	4a	12ff
.	.	.	12gg
.	.	.	12aa
4E	4E	4r	12ff
.	.	.	12gg
.	.	.	12aa
=26	=26	=26	=26
4D	4D	4f	12ff
.	.	.	12gg
.	.	.	12aa
4C	4C	4a	12ff
.	.	.	12gg
.	.	.	12aa
4BB-	4BB-	4d	12ff
.	.	.	12gg
.	.	.	12aa
4AA	4AA	4r	12ff
.	.	.	12gg
.	.	.	12aa
=27	=27	=27	=27
4BB-	4BB-	4.g	12dd
.	.	.	12ee
.	.	.	12ff
4C	4C	.	12cc
.	.	.	12ff
.	.	8cc	.
.	.	.	12ee
2FF	2FF	2a	2ff
==	==	==	==
*-	*-	*-	*-
!!!RWG: This file only contains pitch and duration data.
!!!RWG: Transposing instruments are not transposed.
!!!RWG: Durations of rests and tied notes may be interpreted.
!!!RWG: Key is interpreted using the Humdrum key tool.
!!!SCA: 
!!!YOR: Chrysander Edition
!!!AGN: chamber
!!!AFT: stage1
!!!ENC: F. Bennion
!!!END: 1997/04/15
!!!AST: baroque
!!!YEC: Copyright 1994, Center for Computer Assisted Research in the Humanities
!!!YEM: Rights to all derivative electronic formats reserved.
!!!YEM: Refer to licensing agreement for further details.
!!!YEN: United States of America
!!!EED: W.B. Hewlett
!!!KEY: 2795207193
!!!EMD: Converted from MuseData to Humdrum Aug 9, 1999, by Bret Aarden using muse2kern.
!!!VTS: 2246403234
